X: 31749
T: Pat Ward's
R: slide
M: 12/8
K: Dmajor
A2G|:FED A2D B2D A2D|F2A A2F E2E E2G|
FED A2D B2D A2D|Bcd e2c d3 A2G|
FED A2D B2D A2D|F2A A2F E2E E2G|
F2D A2D B2D A2D|1 Bcd e2c d3 A2G:|2 Bcd e2c d3 dcB||
|:A2d f2d e2d f2d|A2d f2d efe d2B|
A2d f2d e2d e2f|gfe fed B3 A2F|
A2d f2d e2d f2d|A2d f2d e2d e2f|
gfe fed e2d cBA|1 Bcd gfe d3 dcB:|2 Bcd gfe d3||

